X: 453
T: Campell's Farewell To Red Gap
C:Traditional, Arr. Norman Blake
B: jims roots
M:4/4
L:1/8
Q: 1/4=100
K:A
V:1 "G"d2dB =G2a=g | "A"e2a2 [aA
ba=g | e2[a2A2] [a2A2]ed | c2BA =GABG | A2A2 A2a=g:|
V:2 "G"dBdB =G2E2 | "A"A2ABc2cd | ecea e2d2 | c2BA "G"=GABG | "A"[A2A2
V:A2A2 
 [A2A2] (3faf ||
% abcbook-tune_id 6298c24593d97498b2b26734


% abcbook-boost 0
% abcbook-tablature 
% abcbook-transpose 
% abcbook-lastupdated 1654178373614
% abcbook-soundfonts 
% abcbook-repeats 1


